X: 35384
T: Ross Battery, The
R: jig
M: 6/8
K: Dmajor
|:e|d2A d>ef|g>Bd c2A|f>ed d>ef|g>Bd c2e|
d2A d>ef|g>Bd c2A|a2a g>ec|e>dd d2:|
|:g|a>fA d>ef|g>Bd c2A|a>fd d>ef|g>Bd c2g|1
a>fA d>ef|g>Bd c2A|a2a g>ec|e>dd d2:|2
a>fd f<ad|B>eg c2A|a2a g>ec|e>dd d2||
|:d>ef d<fA|B>de B<dA|f>aa f<af|f>ed e2A|
d>ef d<fA|B>de B<dA|a2a g>ec|e>dd d2:|
|:g|a>fd a>fd|g>Bd c2A|g>Bd a2f|f>ed e2g|1
a>fd a>fd|g>Bd c2A|a2a g>ec|e>dd d2:|2
f>ef a2a|B>eg c2A|a2a g>ec|e>dd d2||

